assets/efishery/listrik.svg

<svg width="24" height="24" viewBox="0 0 24 24" fill="none" xmlns="http://www.w3.org/2000/svg">
<path fill-rule="evenodd" clip-rule="evenodd" d="M10.3431 3.79727C11.1458 2.19184 13.098 1.54111 14.7034 2.34382C16.3089 3.14654 16.9596 5.09873 16.1569 6.70416L14.5086 10.0007H15.25C16.4486 10.0007 17.5499 10.6604 18.1154 11.7172C18.681 12.7739 18.619 14.0562 17.9542 15.0535L13.9542 21.0535C12.9585 22.547 10.9407 22.9505 9.44723 21.9549L9.86325 21.3308L9.44723 21.9549C7.95376 20.9592 7.55019 18.9414 8.54584 17.4479L9.17786 16.4999C8.07909 16.4756 7.0649 15.897 6.48539 14.9593C5.89322 14.0012 5.83938 12.8047 6.34311 11.7973L10.3431 3.79727ZM14.0326 3.68546C13.1682 3.25323 12.117 3.60363 11.6848 4.46809L7.68476 12.4681C7.41352 13.0106 7.4425 13.6548 7.76136 14.1707C8.08023 14.6867 8.64349 15.0007 9.25 15.0007H10.5787C10.8553 15.0007 11.1095 15.153 11.24 15.3968C11.3705 15.6407 11.3562 15.9366 11.2027 16.1667L9.79392 18.28C9.2578 19.0842 9.4751 20.1707 10.2793 20.7068C11.0835 21.2429 12.17 21.0256 12.7061 20.2214L16.7061 14.2214C17.0641 13.6844 17.0975 12.994 16.7929 12.425C16.4884 11.8559 15.8954 11.5007 15.25 11.5007H13.2951C13.0352 11.5007 12.7938 11.3661 12.6571 11.145C12.5204 10.9239 12.508 10.6478 12.6243 10.4153L14.8153 6.03334C15.2475 5.16887 14.8971 4.1177 14.0326 3.68546Z" fill="#1D1D1D"/>
</svg>

<svg viewBox="0 0 24 24" xmlns="http://www.w3.org/2000/svg">
  <path fill-rule="evenodd" clip-rule="evenodd" d="M10.343 3.797a3.25 3.25 0 1 1 5.814 2.907l-1.648 3.297h.741a3.25 3.25 0 0 1 2.704 5.053l-4 6a3.25 3.25 0 0 1-4.507.9l.416-.623-.416.624a3.25 3.25 0 0 1-.901-4.507l.632-.948a3.25 3.25 0 0 1-2.835-4.703l4-8zm3.69-.112a1.75 1.75 0 0 0-2.348.783l-4 8a1.75 1.75 0 0 0 1.565 2.533h1.329a.75.75 0 0 1 .624 1.166l-1.41 2.113a1.75 1.75 0 1 0 2.913 1.941l4-6a1.75 1.75 0 0 0-1.456-2.72h-1.955a.75.75 0 0 1-.67-1.086l2.19-4.382a1.75 1.75 0 0 0-.782-2.348z"/>
</svg>
